X:1
T:Die kleinen Hochländer.
T:A Nicolò Piccolomini VI Die kleinen Hochländer.
T: Les petits highlanders.      Piccoli highlanders
T:Ottorino Respighi
T:by IMSLP - Pubblico dominio
T:by IMSLP - Pubblico dominio
T:by IMSLP - Pubblico dominio
T:by IMSLP - Pubblico dominio
T:by IMSLP - Pubblico dominio
C:Ottorino Respighi
Z:by IMSLP - Pubblico dominio
%%score { 1 | ( 2 3 4 ) } { 5 | 6 }
L:1/8
Q:1/4=120
M:4/4
K:G
V:1 bass nm="Piano"
V:2 bass 
V:3 bass 
V:4 bass 
V:5 treble nm="Piano"
V:6 treble 
V:1
"^Tempo di marcia."!ff! !fermata!B,2 | z2{/^A,} (!>!B,>E,) z2{/A,} (!>!B,>E,) | %2
 z2{/^A,} (!>!B,>E,) z2"^Secondo"{/A,} (!>!B,>E,) | z2{/^A,} ((!>!B,>E,)) z2{/A,} (!>!B,>E,) | %4
 z2{/^A,} ((!>!B,>E,)) z2 z3/2 B,/ | E>B, (B,/A,/G,/F,/) E,3 z | [G,E]B,/B,/ B,2 [G,E]B,/B,/ B,2 | %7
 [G,E]E/E/ E2 [G,E]E/E/ E2 |[K:treble] [G,CEG] z [A,^DF] z [G,B,E] z !fermata![G,=D]>B, | %9
 A,<[I:staff +1]G, D,>F, A,[I:staff -1] z !fermata![B,^DF] z | %10
[K:bass]!ff!{/^A,} B,E,/E,/ E,2{/^D} EB,/B,/ B,2 |{/^A,} B,E,/E,/ E,2{/^D} EB,/B,/ B,2 | %12
 [G,B,E] z [G,B,E] z [G,B,E] z [G,B,E] z | E2 B,2 E,2 z3/2 B,/ | %14
 E>B, (B,/A,/G,/F,/) E,>B, (B,/A,/G,/F,/) | E,>A, (A,/G,/F,/E,/) D,>G, (G,/=F,/E,/D,/) | %16
[K:C]!f! .[C,E,]2 .[E,G,]2 .[E,G,]2 .[C,E,]2 |:!f! .[C,E,]2!p! .[E,G,]2 .[E,G,]2 .[C,E,]2 | %18
!f! .[D,F,]2!p! .[F,A,]2 .[F,A,]2 .[D,F,]2 |!f! [E,G,C]2 [G,D]2 [E,A,CE]2 [G,CG]2 | %20
 [A,C]2 [E,G,C]2 [F,B,]2 !>![F,B,]<!>![E,G,] | [E,CE]2 [G,EG]2 [G,EG]2 [E,CE]2 | %22
[K:treble] [F,DF]2 [A,FA]2 [A,FA]2 [F,DF]2 | [G,CEG]2 [A,CF]2 [G,B,F]2 B,2 | %24
 C3/2[K:bass] B,/ G,/A,/C/E,/ D,>E, !>!D,<!>!C, :| [D,G,]2 [E,D]2 [F,D]2 [G,_B,]2 | %26
 [E,A,^C]A,/A,/ A,A,/A,/ A, z z2 | [E,A,]2 [^F,E]2 [G,E]2 [G,C]2 | %28
 [^F,^A,^C]B,/B,/ B,B,/B,/ B, z z2 | [E,A,CE]2 [E,A,CE]2 [E,A,CE]2 B,2 | %30
 [E,A,CE]2 [E,A,CE]2 [E,A,CE]2 B,2 | [E,A,CE]2 B,2 [E,A,CE]2 B,2 | %32
 [E,A,CE]2 B,2 [E,A,CE]2 !fermata!B,2 |[K:G]!ff! (!>!G,<E,) E,>D, (B,,<E,) E,>F, | %34
 G,>F, E,>F, G,>A, B,>A, | G,>E, E,>D, B,,>E, E,>B, | z3/2 A,/ (A,/G,/^E,/=E,/) !>!D,3 z | z8 | %38
 [G,E]B,/B,/ B,2 [G,E]B,/B,/ B,2 | [G,E]E/E/ E2 [G,E]E/E/ E2 | %40
[K:treble] [G,CEG] z [A,^DF] z [G,B,E] z !fermata![G,=D]>B, | %41
 (A,<[I:staff +1]D,) D,>F, A,[I:staff -1] z !fermata![B,^DF] z | %42
[K:bass]!ff!{/^A,} B,E,/E,/ E,2{/^D} EB,/B,/ B,2 |{/^A,} B,E,/E,/ E,2{/^D} EB,/B,/ B,2 | %44
 [G,B,E] z [G,B,D] z [G,B,E] z [G,B,D] z | E2 B,2 E,2 z3/2 B,/ | E>B, (B,/A,/G,/F,/) E,2 z3/2 B,/ | %47
 E>B, (B,/A,/G,/F,/) E,2 z3/2 B,,/ | E,>B, (B,/A,/G,/F,/) E,>B, (B,/A,/G,/F,/) | %49
 (B,/A,/G,/F,/) (B,/A,/G,/F,/) (B,/A,/G,/F,/) !fermata!B,2 | %50
[K:treble]"^più mosso stringendo" [B,EG]2 [A,^DF]2 [G,B,E]2 [G,B,=D]2 | %51
 [B,EG]2 [A,^DF]2 [G,B,E]2 [G,B,=D]2 | [G,B,E]2 [G,B,D]2 [G,B,E]2 [G,B,D]2 | %53
 [G,B,E]2 [G,B,D]2 [G,B,E]2 [G,B,D]2 | !>![G,B,E]2[K:bass] !>!B,2 !>!E,2 !>!B,2 | %55
 !>!E,2 z2 z2[K:treble]!ff! .B.B | .E z z2 [G,B,EG] z z2 |[K:bass] !^!!fermata!E,8 |] %58
V:2
 !fermata![B,,,B,,]2 |{/[E,,^A,,]} !>![E,,B,,]4{/[E,,A,,]} !>![E,,B,,]4 | %2
{/[E,,^A,,]} !>![E,,B,,]4{/[E,,A,,]} !>![E,,B,,]4 | %3
{/[E,,^A,,]} !>![E,,B,,]4{/[E,,A,,]} !>![E,,B,,]4 | %4
{/[E,,^A,,]} !>![E,,B,,]4{/[E,,A,,]} !>![E,,B,,]7/2 B,,/ | E,>B,, (B,,/A,,/G,,/F,,/) E,,3 z | %6
{/^A,,} [E,,B,,]2{/^C,} [G,,D,]2{/A,,} [E,,B,,]2{/C,} [G,,D,]2 | %7
{/A,,} [_E,,_B,,]2{/F,,} [C,,G,,]2{/A,,} [E,,B,,]2{/F,,} [C,,G,,]2 | %8
 [A,,,A,,] z [B,,,B,,] z [E,,,E,,] z !fermata![G,,D,]>B,, | %9
 A,,<D,, D,,>F,, A,, z !fermata![B,,,B,,] z |{/^A,,} !>![E,,B,,]4{/A,,} !>![E,,B,,]4 | %11
{/^A,,} !>![E,,B,,]4{/A,,} !>![E,,B,,]4 |{/^A,,} [E,,B,,]2 [G,,,G,,]2{/A,,} [E,,B,,]2 [G,,,G,,]2 | %13
 [E,,E,]2 [B,,,B,,]2 [E,,,E,,]2 z3/2 B,,/ | E,>B,, (B,,/A,,/G,,/F,,/) E,,>B,, (B,,/A,,/G,,/F,,/) | %15
 E,,>A,, (A,,/G,,/F,,/E,,/) D,,>G,, (G,,/=F,,/E,,/D,,/) | %16
[K:C] [C,,G,,]2 [C,,G,,]2 [C,,G,,]2 [C,,G,,]2 |: [C,,G,,]2 [C,,G,,]2 [C,,G,,]2 [C,,G,,]2 | %18
 [C,,G,,]2 [C,,G,,]2 [C,,G,,]2 [C,,G,,]2 | [C,,C,]2 [B,,,B,,]2 [A,,,A,,]2 [E,,,E,,]2 | %20
 [E,,,F,,]2 [G,,,G,,]2 G,,2 !>!G,,<!>![C,,C,] | [C,,G,,C,]2 [C,,G,,C,]2 [C,,G,,C,]2 [C,,G,,C,]2 | %22
 [C,,G,,C,]2 [C,,G,,C,]2 [C,,G,,C,]2 [C,,G,,C,]2 | [C,,G,,C,]2 [F,,,F,,]2 [G,,,G,,]2 [G,,,G,,]2 | %24
 [C,,G,,]3/2 A,,/ G,,/A,,/C,/E,,/ D,,>E,, !>!D,,<!>!C,, :| %25
 [_B,,,_B,,]2 [B,,,B,,]2 [B,,,B,,]2 [E,,,E,,]2 | [A,,,A,,] z z2 z2 [A,,,,A,,,] z | %27
 [C,,C,]2 [C,,C,]2 [C,,C,]2 [^F,,,^F,,]2 | [B,,,B,,] z z2 z2 [B,,,,B,,,] z | %29
 [C,,C,]2 [C,,C,]2 [F,,,F,,]2 [B,,,B,,]2 | [C,,C,]2 [C,,C,]2 [F,,,F,,]2 [B,,,B,,]2 | %31
 [C,,C,]2 [B,,,B,,]2 [F,,,F,,]2 [B,,,B,,]2 | [C,,C,]2 [B,,,B,,]2 [F,,,F,,]2 !fermata![B,,,B,,]2 | %33
[K:G] (!>!G,,<E,,) E,,>D,, (B,,,<E,,) E,,>F,, | G,,>F,, E,,>F,, G,,>A,, B,,>A,, | %35
 G,,>E,, E,,>D,, B,,,>E,, E,,>B,, | !>!E,>B,, (B,,/A,,/G,,/F,,/) !>!E,,3 z | z8 | %38
{/^A,,} [E,,B,,]2{/^C,} [G,,D,]2{/A,,} [E,,B,,]2{/C,} [G,,D,]2 | %39
{/^A,,} [E,,B,,]2{/^C,} [G,,D,]2{/A,,} [E,,B,,]2{/C,} [G,,D,]2 | %40
 [A,,,A,,] z [B,,,B,,] z [E,,,E,,] z !fermata![G,,C,]>B,, | %41
 A,,<D,, D,,>F,, A,, z !fermata![B,,,B,,] z |{/^A,,} !>![E,,B,,]4{/A,,} !>![E,,B,,]4 | %43
{/^A,,} !>![E,,B,,]4{/A,,} !>![E,,B,,]4 |{/^A,,} [E,,B,,]2 [G,,,G,,]2{/A,,} [E,,B,,]2 [G,,,G,,]2 | %45
 [E,,D,]2 [B,,,B,,]2 [E,,,E,,]2 z3/2 B,,/ | E,>B,, (B,,/A,,/G,,/F,,/) E,,2 z3/2 B,,/ | %47
 E,>B,, (B,,/A,,/G,,/F,,/) E,,2 z2 | z8 | z4 z2 !fermata![B,,,B,,]2 | %50
 [E,,,E,,]2 B,,,2 [E,,,E,,]2 [G,,,G,,]2 | [E,,,E,,]2 B,,,2 [E,,,E,,]2 [G,,,G,,]2 | %52
 [E,,,E,,]2 B,,,2 [E,,,E,,]2 [G,,,G,,]2 | [E,,,E,,]2 B,,,2 [E,,,E,,]2 [G,,,G,,]2 | %54
 [E,,,E,,]2 z2 z2 !>!B,,2 | !>!E,,2 !>![B,,,B,,]2 !>![E,,,E,,]2 z2 | z4 [E,,B,,E,] z z2 | %57
 !^!!fermata![C,,,E,,]8 |] %58
V:3
 x2 | x8 | x8 | x8 | x8 | x8 | x8 | x8 | x8 | x8 | x8 | x8 | x8 | x8 | x8 | x8 |[K:C] x8 |: x8 | %18
 x8 | x8 | x8 | x8 | x8 | z4 x2 [G,A,]2 | E,3/2 x13/2 :| x8 | x8 | x8 | x8 | x8 | x8 | x8 | x8 | %33
[K:G] x8 | x8 | x8 | x8 | x8 | x8 | x8 | x8 | x8 | x8 | x8 | x8 | x8 | x8 | x8 | x8 | x8 | x8 | %51
 x8 | x8 | x8 | x8 | x8 | x8 | x8 |] %58
V:4
 x2 | x8 | x8 | x8 | x8 | x8 | x8 | x8 | x8 | x8 | x8 | x8 | x8 | x8 | x8 | x8 |[K:C] x8 |: x8 | %18
 x8 | x8 | x8 | x8 | x8 | x8 | G,3/2 x5/2[I:staff -1] z4 :| x8 | x8 | x8 | x8 | x8 | x8 | x8 | x8 | %33
[K:G] x8 | x8 | x8 | x8 | x8 | x8 | x8 | x8 | x8 | x8 | x8 | x8 | x8 | x8 | x8 | x8 | x8 | x8 | %51
 x8 | x8 | x8 | x8 | x8 | x8 | x8 |] %58
V:5
!ff! !fermata!b'2 | (g'<e') e'>d' (b<e')!8va(! e'>f' |"^Primo" g'>f' e'>f' g'>a' b'>a' | %3
 g'>e' e'>f' b>e' e'>b' | e''>b' (b'/a'/g'/f'/) e'4!8va)! | z4 z2 z b | (b<e') e'>d' (b<e') e'>d' | %7
 b>e' e'>f' g'>f' e'>f' | g'>e' f'>^d' e'>b !fermata!=d'3/2 z/ | z4 z2 !fermata!z!ff!!8va(! a' | %10
 (g'<f') f'>e' b<e' e'>f' | g'>f' e'>f' g'>a' b'>a' | g'>e' e'>d' b>e' e'>b' | %13
 e''>b' (b'/a'/g'/f'/) e'3!8va)! z | z8 | z8 |[K:C] z8 |: z8 | z8 | z8 | z8 | %21
!ff! (!>!g<c') c'>d' c'>d' (!>!c'<g) | (a<d') d'>e' f'>e' d'<c' | e'>d' c'>a gf' e'>d' | %24
 c'2 z2 z4 :| (d<g) g>a g>a !>!g<d | (e<a) a>b ^c'>b (!>!a<e) | (e<a) a>b a>b (!>!a<e) | %28
 (^f<b) b>^c' ^d'>c' (!>!b<f) |!8va(! (e'<a') a'>b' a'>b' b'2 | (e'<a') a'>b' a'>b' b'2 | %31
 a'<b' b'2 a'>b' b'2 | a'<b' b'2 a'>b' !fermata!b'2!8va)! |[K:G]!ff! z2{/^a} [eb]2 z2{/a} [eb]2 | %34
 z2{/^a} [eb]2 z2{/a} [eb]2 | z2{/^a} [eb]2 z2{/a} [eb]2 | z2{/^a} [eb]2 z2 z3/2 b/ | %37
 e'>b (b/a/g/f/) e2 z b | (b<e') e'>d' (b<e') e'>d' | b>e' e'>f' g'>f' e'>f' | %40
 g'>e' f'>^d' e'>b !fermata!=f'3/2 z/ | z4 z2 !fermata!z!ff! a |!8va(! (g'<f') f'>e' b<e' e'>f' | %43
 f'>f' e'>f' g'>a' b'>a' | g'>e' e'>d' b>e' e'>b' | e''>b' (b'/a'/g'/f'/) e'3!8va)! z | %46
 z2 z3/2 b/ e'>b (b/a/g/f/) | e2 z3/2 b/ e'>b (b/a/g/f/) | e>b (b/a/g/f/) e>b (b/a/g/f/) | %49
!8va(! (b'/a'/g'/f'/) ((b'/a'/g'/f'/)) (b'/a'/g'/f'/) !fermata!b'2!8va)! | %50
"^più mosso stringendo" g'>e' f'>^d' e'>b =d'>b | g'>e' f'>^d' e'>b =d'>b | %52
 (b>e') e'>d' (b>e') e'>d' | (b>e') e'>d' (b>e') e'>d' | b2 z2 z4 | z4 z2!ff! .b'.b' | %56
 .e' z z2!8va(! [g'b'e''] z z2!8va)! | !fermata!z8 |] %58
V:6
 !fermata!b2 | (g<e) e>d (B<e) e>f | g>f e>f g>a b>a | g>e e>d B>e e>b | e'>b (b/a/g/f/) e4 | %5
 z4 z2 z B/ z/ | (B<e) e>d (B<e) e>d | B>e e>f g>f e>f | g>e f>^d e>B !fermata!=d>B | %9
 (A<=D) D>F .A z !>!!fermata!B b | (g<f) f>e B<e e>f | g>f e>f g>a b>a | g>e e>d B>e e>b | %13
 e'>b (b/a/g/f/) e3 z | z8 | z8 |[K:C] z8 |:!f! (G,<C)!p! C>D C>D (C<G,) | %18
!f! (A,<D)!p! D>E F>E (D<C) |!f! (E<G) G>A c>d (e<d) | cA G>E D>E !>!D<!>!C | %21
 (!>!D<C) c>d c>d (!>!c<G) | (A<d) d>e f>e d<c | e>d c>A Gf e>d | c2 z2 z4 :| (D<G) G>A G>A G<D | %26
 (D<G) G>A ^c>B (!>!G<E) | (E<A) A>B A>B (!>!A<E) | (^F<B) B>^c ^d>c (B<F) | (e<a) a>b a>b b2 | %30
 (e<a) a>b a>b b2 | a<b b2 a>b b2 | a<b b2 a>b !fermata!b2 |[K:G]{/^A} [EB]2 z2{/A} [EB]2 z2 | %34
{/^A} [EB]2 z2{/A} [EB]2 z2 |{/^A} [EB]2 z2{/A} [EB]2 z2 |{/^A} [EB]2 z2{/A} [EB]2 z3/2 B/ | %37
 e>B (B/A/G/F/) E2 z B | (B<e) e>d (B<e) e>d | B>e e>f g>f e>f | g>e f>^d e>B !fermata!=d>B | %41
 (A<=D) D>F .A z !>!!fermata!B a | (g<f) f>e B<e e>f | f>f e>f g>a b>a | g>e e>d B>e e>b | %45
 e'>b (b/a/g/f/) e3 z | z2 z3/2 B/ e>B (B/A/G/F/) | E2 z3/2 B/ e>B (B/A/G/F/) | %48
 E>B (B/A/G/F/) E>B (B/A/G/F/) | (b/a/g/f/) ((b/a/g/f/)) (b/a/g/f/) !fermata!b2 | %50
 g>e f>^d e>B =d>B | g>e f>^d e>B =d>B | (B>e) e>d (B>e) e>d | (B>e) e>d (B>e) e>d | %54
 B2 !>!B2 !>!E2 z2 | z4 z2 .b.b | .e z z2 [gbe'] z z2 | !^!!fermata!E8 |] %58

